X:20
T:No.120 John Doherty's
M:4/4
L:1/8
C:highland
K:D
d>cd>e d<AA>a|g>fe>d c>ea2|
d>cd>e d<AA>d|(3Bcd (3efg f<dd2:|
f<df>a g>fe>d|c>Bc>e A2A>g|
f<df>a g>fe>d|c>de>g f<dd>g|
f<df>a g>fe>d|c>Bc>e A2A>g|
(3fga (3gfe (3dcB (3AFA|(3Bcd (3efg f<dd2||
